X: 260
T:Scottiche simple de Meyssac
M:4/4
L:1/8
Q:67
C:trad
O:France
A:Limousin
Z:S.Piron
K:G
G2 (3ABA G2 (3ABA|G2c2B2 (3ABA|G2 (3ABA G2 (3ABA|G2 cB A3 B|
BABc B2 AB|AGAB A2 GB|BABc BABc|B2 (3ABA G4||
W:
W: From "Falaleiro" http://home.t-online.de/home/pheld/homepage.htm
